src/topics/icons/css-3_official.svg

<svg height="232" preserveAspectRatio="xMidYMid" viewBox="0 0 256 232" width="256" xmlns="http://www.w3.org/2000/svg"><path d="m100.90241 231.617947 116.456081-38.653065 38.641509-192.964882h-218.1327074l-8.2968313 43.055701h174.8112307l-5.442629 27.4904758h-175.0770065l-8.5626072 43.0557012h174.8227857l-9.6026 49.284102-70.546176 23.076284-60.9551327-23.076284 4.1599711-21.527851h-43.055701l-10.1225964 51.606753z" fill="#444"/></svg>

<?xml version="1.0" encoding="UTF-8" standalone="no"?>
<svg width="256px" height="232px" viewBox="0 0 256 232" version="1.1" xmlns="http://www.w3.org/2000/svg" xmlns:xlink="http://www.w3.org/1999/xlink" preserveAspectRatio="xMidYMid">
    <g>
        <path d="M100.90241,231.617947 L217.358491,192.964882 L256,0 L37.8672926,0 L29.5704613,43.055701 L204.381692,43.055701 L198.939063,70.5461768 L23.8620565,70.5461768 L15.2994493,113.601878 L190.122235,113.601878 L180.519635,162.88598 L109.973459,185.962264 L49.0183263,162.88598 L53.1782974,141.358129 L10.1225964,141.358129 L0,192.964882 L100.90241,231.617947" fill="#444"></path>
    </g>
</svg>
